markets/XAG.svg

<svg width="43" height="42" viewBox="0 0 43 42" fill="none" xmlns="http://www.w3.org/2000/svg">
<path d="M21.2473 42C32.8453 42 42.2473 32.598 42.2473 21C42.2473 9.40202 32.8453 0 21.2473 0C9.64933 0 0.247314 9.40202 0.247314 21C0.247314 32.598 9.64933 42 21.2473 42Z" fill="#06061B"/>
<g style="mix-blend-mode:multiply" opacity="0.4">
<g style="mix-blend-mode:multiply" opacity="0.4">
<path d="M6.12415 18.2717L4.72729 23.0189L13.1611 28.045L12.7703 21.9574L6.12415 18.2717Z" fill="#B1BFBF"/>
</g>
<g style="mix-blend-mode:multiply" opacity="0.4">
<path d="M20.086 10.2853L26.5645 14.0265L12.7702 21.9574L6.12415 18.2717L20.086 10.2853Z" fill="#B1BFBF"/>
</g>
<g style="mix-blend-mode:multiply" opacity="0.4">
<path d="M28.2402 19.109L26.5645 14.0265L12.7703 21.9574L13.1612 28.0449L28.2402 19.109Z" fill="#B1BFBF"/>
</g>
<g style="mix-blend-mode:multiply" opacity="0.4">
<path d="M10.6644 15.6744V20.7896L11.8237 21.4324H12.2222V14.7834L10.6644 15.6744Z" fill="#B1BFBF"/>
</g>
<g style="mix-blend-mode:multiply" opacity="0.4">
<path d="M22.8942 16.1371L23.8239 15.6025V12.4437L22.8942 11.9072V16.1371Z" fill="#B1BFBF"/>
</g>
<g style="mix-blend-mode:multiply" opacity="0.4">
<path d="M13.2751 21.6671L15.1357 20.5979V13.1173L13.2751 14.1808V21.6671Z" fill="#B1BFBF"/>
</g>
<g style="mix-blend-mode:multiply" opacity="0.4">
<path d="M13.1611 28.045L12.7702 21.9574L6.12415 18.2717" stroke="#B1BFBF" stroke-width="0.25" stroke-miterlimit="10" stroke-linecap="round"/>
</g>
<g style="mix-blend-mode:multiply" opacity="0.4">
<path d="M12.7415 22.0092C11.2872 21.168 7.50568 19.0765 6.12415 18.2727C7.52101 19.0085 11.3322 21.1287 12.798 21.9076C12.8116 21.9151 12.8217 21.9277 12.826 21.9426C12.8303 21.9575 12.8285 21.9735 12.821 21.9871C12.8135 22.0007 12.8009 22.0108 12.786 22.0151C12.7711 22.0194 12.7551 22.0176 12.7415 22.0101V22.0092Z" fill="#B1BFBF"/>
</g>
<g style="mix-blend-mode:multiply" opacity="0.4">
<path d="M26.5654 14.0275C26.5596 13.993 12.6447 22.1825 12.8354 21.9535L13.1611 28.0449L12.7041 21.9622V21.921C12.73 21.9008 26.5376 14.0485 26.5683 14.0275H26.5654Z" fill="#B1BFBF"/>
</g>
</g>
<path d="M6.12415 17.6968L4.72729 22.444L13.1611 27.47L12.7703 21.3825L6.12415 17.6968Z" fill="#B1BFBF"/>
<path d="M20.086 9.71033L26.5645 13.4525L12.7702 21.3824L6.12415 17.6968L20.086 9.71033Z" fill="#CAD8D9"/>
<path d="M28.2402 18.5342L26.5645 13.4526L12.7703 21.3825L13.1612 27.4701L28.2402 18.5342Z" fill="#C4D3D6"/>
<path d="M10.6644 15.0995V20.2146L11.8237 20.8575H12.2222V14.2085L10.6644 15.0995Z" fill="#E3ECE9"/>
<path d="M22.8942 15.5623L23.8239 15.0277V11.8689L22.8942 11.3324V15.5623Z" fill="#E3ECE9"/>
<path d="M13.2751 21.0923L15.1357 20.0231V12.5425L13.2751 13.6059V21.0923Z" fill="#E3ECE9"/>
<path d="M13.1611 27.47L12.7702 21.3825L6.12415 17.6968" stroke="white" stroke-width="0.25" stroke-miterlimit="10" stroke-linecap="round"/>
<path d="M12.7415 21.4342C11.2872 20.593 7.50568 18.5016 6.12415 17.6978C7.52101 18.4335 11.3322 20.5537 12.798 21.3327C12.8116 21.3402 12.8217 21.3527 12.826 21.3677C12.8303 21.3826 12.8285 21.3986 12.821 21.4122C12.8135 21.4258 12.8009 21.4358 12.786 21.4401C12.7711 21.4445 12.7551 21.4427 12.7415 21.4352V21.4342Z" fill="white"/>
<path d="M26.5654 13.4526C26.5596 13.4181 12.6447 21.6077 12.8354 21.3787L13.1611 27.4701L12.7041 21.3873V21.3461C12.73 21.326 26.5376 13.4737 26.5683 13.4526H26.5654Z" fill="white"/>
<g style="mix-blend-mode:multiply" opacity="0.4">
<g style="mix-blend-mode:multiply" opacity="0.4">
<path d="M15.6013 24.2452L14.2054 28.9925L22.6393 34.0185L22.2475 27.9309L15.6013 24.2452Z" fill="#B1BFBF"/>
</g>
<g style="mix-blend-mode:multiply" opacity="0.4">
<path d="M29.5642 16.2588L36.0426 20L22.2474 27.9309L15.6013 24.2452L29.5642 16.2588Z" fill="#B1BFBF"/>
</g>
<g style="mix-blend-mode:multiply" opacity="0.4">
<path d="M37.7183 25.0825L36.0426 20L22.2474 27.9309L22.6393 34.0184L37.7183 25.0825Z" fill="#B1BFBF"/>
</g>
<g style="mix-blend-mode:multiply" opacity="0.4">
<path d="M20.1426 21.648V26.7631L21.3018 27.4059H21.6994V20.757L20.1426 21.648Z" fill="#B1BFBF"/>
</g>
<g style="mix-blend-mode:multiply" opacity="0.4">
<path d="M32.3723 22.1107L33.3021 21.5761V18.4174L32.3723 17.8799V22.1107Z" fill="#B1BFBF"/>
</g>
<g style="mix-blend-mode:multiply" opacity="0.4">
<path d="M22.7533 27.6406L24.6129 26.5714V19.0898L22.7533 20.1543V27.6406Z" fill="#B1BFBF"/>
</g>
<g style="mix-blend-mode:multiply" opacity="0.4">
<path d="M22.6393 34.0185L22.2474 27.9309L15.6013 24.2452" stroke="#B1BFBF" stroke-width="0.25" stroke-miterlimit="10" stroke-linecap="round"/>
</g>
<g style="mix-blend-mode:multiply" opacity="0.4">
<path d="M22.2196 27.9827C20.7653 27.1415 16.9838 25.05 15.6013 24.2462C16.9982 24.982 20.8103 27.1022 22.2762 27.8802C22.2879 27.8886 22.2962 27.9011 22.2994 27.9152C22.3026 27.9293 22.3006 27.9442 22.2936 27.9569C22.2867 27.9696 22.2753 27.9793 22.2617 27.9843C22.2481 27.9892 22.2331 27.989 22.2196 27.9836V27.9827Z" fill="#B1BFBF"/>
</g>
<g style="mix-blend-mode:multiply" opacity="0.4">
<path d="M36.0426 20C36.0378 19.9655 22.1229 28.155 22.3135 27.927L22.6383 34.0184L22.1823 27.9347V27.8944C22.2081 27.8743 36.0148 20.022 36.0455 20H36.0426Z" fill="#B1BFBF"/>
</g>
</g>
<path d="M15.6013 23.6704L14.2054 28.4176L22.6393 33.4436L22.2474 27.3561L15.6013 23.6704Z" fill="#B1BFBF"/>
<path d="M29.5642 15.684L36.0426 19.4252L22.2474 27.3561L15.6013 23.6704L29.5642 15.684Z" fill="#CAD8D9"/>
<path d="M37.7183 24.5077L36.0426 19.4252L22.2474 27.356L22.6393 33.4436L37.7183 24.5077Z" fill="#C4D3D6"/>
<path d="M20.1426 21.073V26.1881L21.3018 26.831H21.6994V20.182L20.1426 21.073Z" fill="#E3ECE9"/>
<path d="M32.3723 21.5357L33.3021 21.0011V17.8424L32.3723 17.3049V21.5357Z" fill="#E3ECE9"/>
<path d="M22.7533 27.0658L24.6129 25.9966V18.515L22.7533 19.5794V27.0658Z" fill="#E3ECE9"/>
<path d="M22.6393 33.4436L22.2474 27.3561L15.6013 23.6704" stroke="white" stroke-width="0.25" stroke-miterlimit="10" stroke-linecap="round"/>
<path d="M22.2196 27.4077C20.7653 26.5665 16.9838 24.4751 15.6013 23.6713C16.9982 24.4071 20.8103 26.5273 22.2762 27.3052C22.2879 27.3137 22.2962 27.3261 22.2994 27.3403C22.3026 27.3544 22.3006 27.3692 22.2936 27.3819C22.2867 27.3947 22.2753 27.4044 22.2617 27.4093C22.2481 27.4142 22.2331 27.414 22.2196 27.4087V27.4077Z" fill="white"/>
<path d="M36.0426 19.4252C36.0378 19.3907 22.1229 27.5802 22.3135 27.3522L22.6383 33.4436L22.1823 27.3599V27.3196C22.2081 27.2995 36.0148 19.4472 36.0455 19.4252H36.0426Z" fill="white"/>
<g style="mix-blend-mode:multiply" opacity="0.4">
<g style="mix-blend-mode:multiply" opacity="0.4">
<path d="M11.0802 16.6823L9.68335 21.4295L18.1172 26.4555L17.7263 20.3679L11.0802 16.6823Z" fill="#B1BFBF"/>
</g>
<g style="mix-blend-mode:multiply" opacity="0.4">
<path d="M25.0431 8.69482L31.5215 12.437L17.7263 20.3679L11.0802 16.6822L25.0431 8.69482Z" fill="#B1BFBF"/>
</g>
<g style="mix-blend-mode:multiply" opacity="0.4">
<path d="M33.1972 17.5196L31.5215 12.437L17.7263 20.3679L18.1172 26.4554L33.1972 17.5196Z" fill="#B1BFBF"/>
</g>
<g style="mix-blend-mode:multiply" opacity="0.4">
<path d="M15.6205 14.0848V19.2L16.7797 19.8428H17.1783V13.1938L15.6205 14.0848Z" fill="#B1BFBF"/>
</g>
<g style="mix-blend-mode:multiply" opacity="0.4">
<path d="M27.8512 14.5476L28.78 14.013V10.8542L27.8512 10.3168V14.5476Z" fill="#B1BFBF"/>
</g>
<g style="mix-blend-mode:multiply" opacity="0.4">
<path d="M18.2322 20.0776L20.0918 19.0084V11.5269L18.2322 12.5913V20.0776Z" fill="#B1BFBF"/>
</g>
<g style="mix-blend-mode:multiply" opacity="0.4">
<path d="M18.1172 26.4555L17.7263 20.3679L11.0802 16.6823" stroke="#B1BFBF" stroke-width="0.25" stroke-miterlimit="10" stroke-linecap="round"/>
</g>
<g style="mix-blend-mode:multiply" opacity="0.4">
<path d="M17.6966 20.4197C16.2422 19.5775 12.4608 17.487 11.0792 16.6832C12.4761 17.419 16.2873 19.5392 17.7541 20.3172C17.7664 20.3255 17.7752 20.3381 17.7787 20.3526C17.7821 20.367 17.78 20.3823 17.7728 20.3953C17.7656 20.4083 17.7538 20.4181 17.7396 20.4228C17.7255 20.4275 17.7102 20.4267 17.6966 20.4206V20.4197Z" fill="#B1BFBF"/>
</g>
<g style="mix-blend-mode:multiply" opacity="0.4">
<path d="M31.5215 12.437C31.5157 12.4025 17.6008 20.5921 17.7924 20.364L18.1181 26.4554L17.6621 20.3717V20.3315C17.688 20.3113 31.4956 12.4581 31.5263 12.437H31.5215Z" fill="#B1BFBF"/>
</g>
</g>
<path d="M11.0802 16.1074L9.68335 20.8546L18.1172 25.8807L17.7263 19.7931L11.0802 16.1074Z" fill="#B1BFBF"/>
<path d="M25.0431 8.12L31.5215 11.8622L17.7263 19.7931L11.0802 16.1074L25.0431 8.12Z" fill="#CAD8D9"/>
<path d="M33.1972 16.9447L31.5215 11.8622L17.7263 19.7931L18.1172 25.8806L33.1972 16.9447Z" fill="#C4D3D6"/>
<path d="M15.6205 13.51V18.6251L16.7797 19.268H17.1783V12.619L15.6205 13.51Z" fill="#E3ECE9"/>
<path d="M27.8512 13.9728L28.78 13.4382V10.2794L27.8512 9.74194V13.9728Z" fill="#E3ECE9"/>
<path d="M18.2322 19.5028L20.0918 18.4336V10.952L18.2322 12.0164V19.5028Z" fill="#E3ECE9"/>
<path d="M18.1172 25.8807L17.7263 19.7931L11.0802 16.1074" stroke="white" stroke-width="0.25" stroke-miterlimit="10" stroke-linecap="round"/>
<path d="M17.6966 19.8449C16.2422 19.0027 12.4608 16.9122 11.0792 16.1084C12.4761 16.8442 16.2873 18.9644 17.7541 19.7423C17.7664 19.7506 17.7752 19.7633 17.7787 19.7778C17.7821 19.7922 17.78 19.8075 17.7728 19.8205C17.7656 19.8335 17.7538 19.8433 17.7396 19.848C17.7255 19.8527 17.7102 19.8519 17.6966 19.8458V19.8449Z" fill="white"/>
<path d="M31.5215 11.8622C31.5157 11.8277 17.6008 20.0172 17.7924 19.7892L18.1181 25.8806L17.6621 19.7969V19.7566C17.688 19.7365 31.4956 11.8832 31.5263 11.8622H31.5215Z" fill="white"/>
</svg>

<svg xmlns="http://www.w3.org/2000/svg" width="43" height="42" fill="none"><path fill="#06061B" d="M21.247 42c11.598 0 21-9.402 21-21s-9.402-21-21-21-21 9.402-21 21 9.402 21 21 21Z"/><g opacity=".4" style="mix-blend-mode:multiply"><path fill="#B1BFBF" d="m6.124 18.272-1.397 4.747 8.434 5.026-.39-6.088-6.647-3.685Z" opacity=".4" style="mix-blend-mode:multiply"/><path fill="#B1BFBF" d="m20.086 10.285 6.479 3.742-13.795 7.93-6.646-3.685 13.962-7.987Z" opacity=".4" style="mix-blend-mode:multiply"/><path fill="#B1BFBF" d="m28.24 19.109-1.675-5.083-13.795 7.931.391 6.088 15.08-8.936ZM10.664 15.674v5.116l1.16.642h.398v-6.649l-1.558.891Z" opacity=".4" style="mix-blend-mode:multiply"/><path fill="#B1BFBF" d="m22.894 16.137.93-.535v-3.158l-.93-.537v4.23ZM13.275 21.667l1.86-1.07v-7.48l-1.86 1.064v7.486Z" opacity=".4" style="mix-blend-mode:multiply"/><path stroke="#B1BFBF" stroke-linecap="round" stroke-miterlimit="10" stroke-width=".25" d="m13.161 28.045-.39-6.088-6.647-3.685" opacity=".4" style="mix-blend-mode:multiply"/><path fill="#B1BFBF" d="M12.742 22.01c-1.455-.842-5.236-2.934-6.618-3.737 1.397.736 5.208 2.856 6.674 3.635a.059.059 0 1 1-.056.102Z" opacity=".4" style="mix-blend-mode:multiply"/><path fill="#B1BFBF" d="M26.565 14.027c-.005-.034-13.92 8.156-13.73 7.926l.326 6.092-.457-6.083v-.041c.026-.02 13.834-7.872 13.864-7.893h-.003Z" opacity=".4" style="mix-blend-mode:multiply"/></g><path fill="#B1BFBF" d="m6.124 17.697-1.397 4.747 8.434 5.026-.39-6.087-6.647-3.686Z"/><path fill="#CAD8D9" d="m20.086 9.71 6.479 3.742-13.795 7.93-6.646-3.685L20.086 9.71Z"/><path fill="#C4D3D6" d="m28.24 18.534-1.675-5.081-13.795 7.93.391 6.087 15.08-8.936Z"/><path fill="#E3ECE9" d="M10.664 15.1v5.115l1.16.643h.398v-6.65l-1.558.892ZM22.894 15.562l.93-.534v-3.16l-.93-.536v4.23ZM13.275 21.092l1.86-1.069v-7.48l-1.86 1.063v7.486Z"/><path stroke="#fff" stroke-linecap="round" stroke-miterlimit="10" stroke-width=".25" d="m13.161 27.47-.39-6.087-6.647-3.686"/><path fill="#fff" d="M12.742 21.434c-1.455-.841-5.236-2.932-6.618-3.736 1.397.735 5.208 2.856 6.674 3.635a.058.058 0 0 1-.012.107.058.058 0 0 1-.044-.005Z"/><path fill="#fff" d="M26.565 13.453c-.005-.035-13.92 8.155-13.73 7.926l.326 6.091-.457-6.083v-.04c.026-.021 13.834-7.873 13.864-7.894h-.003Z"/><g opacity=".4" style="mix-blend-mode:multiply"><path fill="#B1BFBF" d="m15.601 24.245-1.396 4.747 8.434 5.027-.392-6.088-6.646-3.686Z" opacity=".4" style="mix-blend-mode:multiply"/><path fill="#B1BFBF" d="M29.564 16.259 36.043 20l-13.796 7.93-6.646-3.685 13.963-7.986Z" opacity=".4" style="mix-blend-mode:multiply"/><path fill="#B1BFBF" d="M37.718 25.082 36.043 20l-13.796 7.93.392 6.088 15.08-8.936ZM20.143 21.648v5.115l1.159.643h.397v-6.649l-1.556.891Z" opacity=".4" style="mix-blend-mode:multiply"/><path fill="#B1BFBF" d="m32.372 22.11.93-.534v-3.159l-.93-.537v4.23ZM22.753 27.64l1.86-1.069V19.09l-1.86 1.064v7.487Z" opacity=".4" style="mix-blend-mode:multiply"/><path stroke="#B1BFBF" stroke-linecap="round" stroke-miterlimit="10" stroke-width=".25" d="m22.64 34.019-.393-6.088-6.646-3.686" opacity=".4" style="mix-blend-mode:multiply"/><path fill="#B1BFBF" d="M22.22 27.983c-1.455-.841-5.236-2.933-6.619-3.737 1.397.736 5.21 2.856 6.675 3.634a.06.06 0 0 1-.056.104v-.001Z" opacity=".4" style="mix-blend-mode:multiply"/><path fill="#B1BFBF" d="M36.043 20c-.005-.035-13.92 8.155-13.73 7.927l.325 6.091-.456-6.083v-.04c.026-.02 13.833-7.873 13.863-7.895h-.002Z" opacity=".4" style="mix-blend-mode:multiply"/></g><path fill="#B1BFBF" d="m15.601 23.67-1.396 4.748 8.434 5.026-.392-6.088-6.646-3.686Z"/><path fill="#CAD8D9" d="m29.564 15.684 6.479 3.741-13.796 7.931-6.646-3.686 13.963-7.986Z"/><path fill="#C4D3D6" d="m37.718 24.508-1.675-5.083-13.796 7.931.392 6.088 15.08-8.936Z"/><path fill="#E3ECE9" d="M20.143 21.073v5.115l1.159.643h.397v-6.649l-1.556.891ZM32.372 21.536l.93-.535v-3.159l-.93-.537v4.23ZM22.753 27.066l1.86-1.07v-7.481l-1.86 1.064v7.487Z"/><path stroke="#fff" stroke-linecap="round" stroke-miterlimit="10" stroke-width=".25" d="m22.64 33.444-.393-6.088-6.646-3.686"/><path fill="#fff" d="M22.22 27.408c-1.455-.841-5.236-2.933-6.619-3.737 1.397.736 5.21 2.856 6.675 3.634a.06.06 0 0 1-.056.104v-.001Z"/><path fill="#fff" d="M36.043 19.425c-.005-.034-13.92 8.155-13.73 7.927l.325 6.092-.456-6.084v-.04c.026-.02 13.833-7.873 13.863-7.895h-.002Z"/><g opacity=".4" style="mix-blend-mode:multiply"><path fill="#B1BFBF" d="M11.08 16.682 9.683 21.43l8.434 5.026-.39-6.088-6.647-3.686Z" opacity=".4" style="mix-blend-mode:multiply"/><path fill="#B1BFBF" d="m25.043 8.695 6.479 3.742-13.796 7.93-6.646-3.685 13.963-7.987Z" opacity=".4" style="mix-blend-mode:multiply"/><path fill="#B1BFBF" d="m33.197 17.52-1.676-5.083-13.795 7.93.391 6.088 15.08-8.935ZM15.62 14.085V19.2l1.16.643h.398v-6.65l-1.558.892Z" opacity=".4" style="mix-blend-mode:multiply"/><path fill="#B1BFBF" d="m27.851 14.548.929-.535v-3.159l-.929-.537v4.23ZM18.232 20.078l1.86-1.07v-7.481l-1.86 1.064v7.487Z" opacity=".4" style="mix-blend-mode:multiply"/><path stroke="#B1BFBF" stroke-linecap="round" stroke-miterlimit="10" stroke-width=".25" d="m18.117 26.456-.39-6.088-6.647-3.686" opacity=".4" style="mix-blend-mode:multiply"/><path fill="#B1BFBF" d="M17.697 20.42c-1.455-.843-5.236-2.933-6.618-3.737 1.397.736 5.208 2.856 6.675 3.634a.06.06 0 0 1-.014.106.06.06 0 0 1-.043-.002v-.001Z" opacity=".4" style="mix-blend-mode:multiply"/><path fill="#B1BFBF" d="M31.521 12.437c-.005-.034-13.92 8.155-13.729 7.927l.326 6.091-.456-6.083v-.04c.026-.02 13.834-7.874 13.864-7.895h-.005Z" opacity=".4" style="mix-blend-mode:multiply"/></g><path fill="#B1BFBF" d="m11.08 16.107-1.397 4.748 8.434 5.026-.39-6.088-6.647-3.686Z"/><path fill="#CAD8D9" d="m25.043 8.12 6.479 3.742-13.796 7.931-6.646-3.686L25.043 8.12Z"/><path fill="#C4D3D6" d="m33.197 16.945-1.676-5.083-13.795 7.931.391 6.088 15.08-8.936Z"/><path fill="#E3ECE9" d="M15.62 13.51v5.115l1.16.643h.398v-6.649l-1.558.891ZM27.851 13.973l.929-.535V10.28l-.929-.537v4.23ZM18.232 19.503l1.86-1.07v-7.481l-1.86 1.064v7.487Z"/><path stroke="#fff" stroke-linecap="round" stroke-miterlimit="10" stroke-width=".25" d="m18.117 25.88-.39-6.087-6.647-3.686"/><path fill="#fff" d="M17.697 19.845c-1.455-.842-5.236-2.933-6.618-3.737 1.397.736 5.208 2.856 6.675 3.634a.06.06 0 0 1 .019.078.06.06 0 0 1-.076.026v-.001Z"/><path fill="#fff" d="M31.521 11.862c-.005-.034-13.92 8.155-13.729 7.927l.326 6.092-.456-6.084v-.04c.026-.02 13.834-7.874 13.864-7.895h-.005Z"/></svg>
